X: 05036
T: HENNIKER HORNPIPE
C: Bob McQuillen 16 Nov 80
B: Bob's Note Book 5 #36
%R: hornpipe, reel
Z: 2021 John Chambers <jc:trillian.mit.edu>
M: C
L: 1/8
K: D
FA \
| BAFD A,DFA | dAdf A2fg | afab afdB | AFDF E2FA |\
| BAFD A,DFA | dAdf afdf | gbag feag | f2d2 d2 :|
|: dB \
| ABdf edBd | ABdf e2dB | ABdf edBA | abaf e2de |\
| fafd efde | fbba bafe | d2df edBA | B2d2 d2 :|
%%begintext align
%% In memoriam Henniker, N.H. -
%% "The Only Henniker on Earth"!
%%endtext
